vectors/netboot.svg

<svg version="1.1" viewBox="0 0 280.06 187.2" xmlns="http://www.w3.org/2000/svg"><g transform="translate(-59.97 -106.4)" fill-rule="evenodd"><path d="m84 107.13c-2.225 0.829-5.61 4.156-6.405 6.297-0.505 1.358-0.601 12.627-0.696 82.266l-0.11 80.692-16.589 0.216-0.23 6.016 6.992 5.492 6.993 5.492h252.08l13.992-10.912-0.232-6.088-16.59-0.216-0.105-80.892c-0.118-90.687 0.196-82.065-3.112-85.653-3.522-3.821 9.8-3.443-120.11-3.41-105.72 0.028-114.22 0.079-115.88 0.7m229.87 8.541 0.926 0.869v159.86h-89.22l-0.417 1.098c-0.765 2.012-2.447 3.778-4.516 4.741l-2.047 0.953-18.513 4e-3c-19.958 4e-3 -19.821 0.017-22.667-2.154-0.673-0.513-1.641-1.768-2.15-2.788l-0.926-1.854h-89.144v-159.49l1.658-2.108h226.09l0.926 0.87m-107.19 19.83c-0.353 0.825-1.122 2.76-1.708 4.3-1.434 3.763-2.637 6.897-5.992 15.6-0.509 1.32-1.58 4.11-2.38 6.2s-1.907 4.97-2.46 6.4c-1.497 3.871-2.885 7.485-3.996 10.4-0.545 1.43-1.341 3.443-1.768 4.474-1.114 2.689-1.089 2.726 1.81 2.726 2.897 0 2.876 0.018 4.222-3.739 0.406-1.134 1.303-3.501 1.992-5.261s1.589-4.1 2-5.2 1.311-3.44 2-5.2 1.589-4.1 2-5.2 1.311-3.44 2-5.2 1.589-4.1 2-5.2 1.311-3.44 2-5.2 1.589-4.1 1.999-5.2c0.409-1.1 1.117-2.945 1.571-4.1l0.827-2.1h-5.476l-0.641 1.5m-26.346 10.839c-1.614 0.846-7.524 3.894-13.134 6.774s-11.685 6.007-13.5 6.948l-3.3 1.712v4.113l3.7 1.91c2.035 1.05 6.22 3.214 9.3 4.809 12.015 6.221 19.812 10.195 20.002 10.195 0.109 0 0.198-1.233 0.198-2.74v-2.74l-13.064-6.56c-7.186-3.608-13.05-6.74-13.032-6.96s5.897-3.348 13.064-6.951l13.032-6.551v-2.749c0-1.512-0.075-2.749-0.166-2.749s-1.486 0.692-3.1 1.539m36.066 1.203v2.743l13.42 6.663c7.381 3.665 13.336 6.795 13.232 6.957-0.103 0.162-6.142 3.263-13.42 6.89l-13.232 6.595v2.705c0 1.488 0.102 2.705 0.226 2.705 0.198 0 9.535-4.749 27.374-13.923l5.4-2.777v-4.562l-7.8-3.995c-4.29-2.198-11.631-5.964-16.314-8.369-4.683-2.406-8.598-4.374-8.7-4.374s-0.186 1.234-0.186 2.742m-61.2 56.258v2.6h28.8v-5.2h-28.8v2.6m42 0v2.6h10.4v-5.2h-10.4v2.6m23.6 0v2.6h10v-5.2h-10v2.6m-65.432 7.14c-0.118 0.306-0.158 1.524-0.091 2.708l0.123 2.152 19.437 0.214-0.119-2.707-0.118-2.707-9.51-0.107c-7.813-0.088-9.548-9e-3 -9.722 0.447m28.106-0.28c-0.151 0.15-0.274 1.417-0.274 2.814v2.54l19.4-0.214v-5.2l-9.426-0.107c-5.185-0.059-9.55 0.016-9.7 0.167m23.326 2.54v2.8h19.2v-5.6h-19.2v2.8m28 0v2.8h19.2v-5.6h-19.2v2.8m-74 10.2v2.6h18v-5.2h-18v2.6m-5.6 8.4v2.6h19.6v-5.2h-19.6v2.6m32.8 0v2.6h14.8v-5.2h-14.8v2.6m-32.634 7.144c-0.116 0.303-0.156 1.52-0.089 2.704l0.123 2.152h47.2v-5.2l-23.511-0.103c-19.668-0.087-23.546-0.013-23.723 0.447m60.634 2.256v2.8h19.2v-5.6h-19.2v2.8m-65.2 9.203v2.802l56.6-0.205 0.126-1.768c0.07-0.972 0.021-2.187-0.107-2.7l-0.234-0.932h-56.385v2.803m74.482-0.11 0.118 2.707h19.2v-5.2l-19.437-0.214 0.119 2.707" fill="#090909"/><path d="m143.9 115.1c30.855 0.057 81.345 0.057 112.2 0s5.61-0.103-56.1-0.103-86.955 0.046-56.1 0.103m65.889 18.789c1.543 0.084 2.941 0.366 3.13 0.631 0.241 0.338 0.294 0.303 0.179-0.12-0.124-0.461-0.849-0.607-3.13-0.631l-2.968-0.032 2.789 0.152m17.811 22.29c0 0.11 0.54 0.48 1.2 0.821s1.2 0.531 1.2 0.421-0.54-0.48-1.2-0.821-1.2-0.531-1.2-0.421m4 2c0 0.11 0.54 0.48 1.2 0.821s1.2 0.531 1.2 0.421-0.54-0.48-1.2-0.821-1.2-0.531-1.2-0.421m4 2c0 0.11 0.54 0.48 1.2 0.821s1.2 0.531 1.2 0.421-0.54-0.48-1.2-0.821-1.2-0.531-1.2-0.421m-85.173 1.189c-0.279 0.336-0.411 1.436-0.323 2.7l0.148 2.132 0.074-2.22c0.041-1.221 0.29-2.436 0.554-2.7s0.376-0.48 0.249-0.48-0.443 0.255-0.702 0.568m99.297 2.432c2e-3 1.32 0.077 1.812 0.166 1.093s0.087-1.799-4e-3 -2.4-0.164-0.013-0.162 1.307m-91.724 6.379c0 0.11 0.54 0.48 1.2 0.821s1.2 0.531 1.2 0.421-0.54-0.48-1.2-0.821-1.2-0.531-1.2-0.421m-3.14 33.297c-0.033 1.582 0.075 2.96 0.24 3.063 0.165 0.102 0.249-0.742 0.186-1.877-0.204-3.678-0.365-4.125-0.426-1.186m42.077 0.324c2e-3 1.76 0.072 2.43 0.156 1.489 0.085-0.94 0.084-2.38-2e-3 -3.2-0.086-0.819-0.155-0.049-0.154 1.711m33.795 1e-3c-0.073 1.65 3e-3 3 0.168 3 0.165-1e-3 0.3-1.351 0.3-3.001 0-3.875-0.298-3.875-0.468 1e-3m-75.765 6.741c-0.115 0.298-0.152 1.693-0.082 3.1l0.126 2.558 0.194-3.101c0.195-3.103 0.151-3.572-0.238-2.557m19.747 1.558c0.206 3.782 0.365 4.155 0.426 1 0.033-1.705-0.075-3.1-0.24-3.1s-0.249 0.945-0.186 2.1m8.253-1.558c-0.115 0.298-0.152 1.693-0.082 3.1l0.126 2.558 0.194-3.101c0.195-3.103 0.151-3.572-0.238-2.557m19.747 1.558c0.206 3.782 0.365 4.155 0.426 1 0.033-1.705-0.075-3.1-0.24-3.1s-0.249 0.945-0.186 2.1m23.423 0.9c2e-3 1.76 0.072 2.43 0.156 1.489 0.085-0.94 0.084-2.38-2e-3 -3.2-0.086-0.819-0.155-0.049-0.154 1.711m27.997 0.2c0 1.65 0.071 2.325 0.157 1.5 0.087-0.825 0.087-2.175 0-3-0.086-0.825-0.157-0.15-0.157 1.5m-99.274 18.276c-0.033 1.582 0.075 2.96 0.24 3.063 0.165 0.102 0.249-0.742 0.186-1.877-0.204-3.678-0.365-4.125-0.426-1.186m19.872 0.325c-0.073 1.65 3e-3 3 0.168 3 0.165-1e-3 0.3-1.351 0.3-3.001 0-3.875-0.298-3.875-0.468 1e-3m28 0c-0.073 1.65 3e-3 3 0.168 3 0.165-1e-3 0.3-1.351 0.3-3.001 0-3.875-0.298-3.875-0.468 1e-3m-47.765 6.741c-0.115 0.298-0.152 1.693-0.082 3.1l0.126 2.558 0.194-3.101c0.195-3.103 0.151-3.572-0.238-2.557m47.747 1.558c0.206 3.782 0.365 4.155 0.426 1 0.033-1.705-0.075-3.1-0.24-3.1s-0.249 0.945-0.186 2.1m-37.785 7.4c7.882 0.061 20.662 0.061 28.4 0 7.739-0.061 1.291-0.111-14.329-0.11-15.62 0-21.952 0.049-14.071 0.11m60.138-0.033c-0.368 0.367-0.338 5.642 0.033 5.873 0.165 0.102 0.241-1.144 0.169-2.77l-0.132-2.956 9.732-0.114 9.731-0.115-9.633-0.092c-5.299-0.051-9.754 0.027-9.9 0.174m19.729 3.015c-0.108 1.695-0.052 2.937 0.124 2.76 0.175-0.177 0.264-1.563 0.196-3.082l-0.124-2.76-0.196 3.082m-180.67 25.817c2.377 0.071 6.157 0.07 8.4-1e-3s0.298-0.129-4.322-0.129c-4.62 1e-3 -6.455 0.059-4.078 0.13m37.278-4e-3c42.104 0.274 73.706 0.276 73.538 5e-3 -0.102-0.165-20.29-0.257-44.862-0.205-24.572 0.053-37.476 0.143-28.676 0.2m123.67-0.028c-0.147 0.146-0.264 0.461-0.261 0.7 4e-3 0.258 0.134 0.232 0.323-0.065 0.248-0.392 9.842-0.521 44.894-0.602l44.577-0.104-44.633-0.098c-24.549-0.054-44.754 0.022-44.9 0.169m102.66 0.032c2.377 0.071 6.157 0.07 8.4-1e-3s0.298-0.129-4.322-0.129c-4.62 1e-3 -6.455 0.059-4.078 0.13m-151.72 3.026c0 0.069 0.585 0.654 1.3 1.3l1.3 1.175-1.175-1.3c-1.095-1.212-1.425-1.484-1.425-1.175m46.575 1.175-1.175 1.3 1.3-1.175c0.715-0.646 1.3-1.231 1.3-1.3 0-0.309-0.33-0.037-1.425 1.175" fill="#a4a4a4"/><path d="m323.4 196c0 43.89 0.047 61.845 0.104 39.9s0.057-57.855 0-79.8-0.104-3.99-0.104 39.9m-246.8 0.6c0 43.78 0.047 61.749 0.104 39.932 0.057-21.818 0.057-57.638 0-79.6-0.057-21.963-0.104-4.112-0.104 39.668m107.4 7.282c-0.107 1.585-0.051 2.737 0.126 2.559 0.176-0.177 0.264-1.474 0.195-2.882l-0.125-2.559-0.196 2.882m-23.672 6.417c2.708 0.069 7.028 0.069 9.6 0 2.572-0.07 0.357-0.127-4.923-0.126-5.28 0-7.385 0.057-4.677 0.126m28 0c2.708 0.069 7.028 0.069 9.6 0 2.572-0.07 0.357-0.127-4.923-0.126-5.28 0-7.385 0.057-4.677 0.126m23.177 0c2.695 0.069 7.105 0.069 9.8 0s0.49-0.126-4.9-0.126-7.595 0.057-4.9 0.126m28 0c2.695 0.069 7.105 0.069 9.8 0s0.49-0.126-4.9-0.126-7.595 0.057-4.9 0.126m-74.177 16c2.597 0.07 6.737 0.069 9.2-1e-3 2.462-0.07 0.337-0.127-4.723-0.126-5.06 0-7.075 0.057-4.477 0.127m22.45 5.701 0.027 2.6 7.4 0.014 7.4 0.015-7.282-0.124-7.282-0.123-0.145-2.491-0.146-2.491 0.028 2.6m-27.45 2.699c2.708 0.069 7.028 0.069 9.6 0 2.572-0.07 0.357-0.127-4.923-0.126-5.28 0-7.385 0.057-4.677 0.126m7.006 3.601c6.56 0.062 17.18 0.061 23.6 0 6.419-0.062 1.051-0.113-11.929-0.112-12.98 0-18.232 0.05-11.671 0.112m48.438 0.242c-0.115 0.298-0.144 1.693-0.065 3.1l0.144 2.558 0.154-5.786 9.7-0.114 9.7-0.115-9.713-0.092c-7.867-0.075-9.752 0.01-9.92 0.449m-50.838 14.958c7.882 0.061 20.662 0.061 28.4 0 7.739-0.061 1.291-0.111-14.329-0.11-15.62 0-21.952 0.049-14.071 0.11m65.394-1e-3c2.708 0.069 7.028 0.069 9.6 0 2.572-0.07 0.357-0.127-4.923-0.126-5.28 0-7.385 0.057-4.677 0.126" fill="#7c7c7c"/></g></svg>

<svg id="svg" version="1.1" xmlns="http://www.w3.org/2000/svg" xmlns:xlink="http://www.w3.org/1999/xlink" width="400" height="400" viewBox="0, 0, 400,400"><g id="svgg"><path id="path0" d="M84.000 107.129 C 81.775 107.958,78.390 111.285,77.595 113.426 C 77.090 114.784,76.994 126.053,76.899 195.692 L 76.789 276.384 68.494 276.492 L 60.200 276.600 60.085 279.608 L 59.970 282.616 66.962 288.108 L 73.955 293.600 199.997 293.600 L 326.040 293.600 333.036 288.144 L 340.032 282.688 339.916 279.644 L 339.800 276.600 331.505 276.492 L 323.210 276.384 323.105 195.492 C 322.987 104.805,323.301 113.427,319.993 109.839 C 316.471 106.018,329.793 106.396,199.885 106.429 C 94.168 106.457,85.668 106.508,84.000 107.129 M313.874 115.670 L 314.800 116.539 314.800 196.470 L 314.800 276.400 270.190 276.400 L 225.580 276.400 225.163 277.498 C 224.398 279.510,222.716 281.276,220.647 282.239 L 218.600 283.192 200.087 283.196 C 180.129 283.200,180.266 283.213,177.420 281.042 C 176.747 280.529,175.779 279.274,175.270 278.254 L 174.344 276.400 129.772 276.400 L 85.200 276.400 85.200 196.654 L 85.200 116.908 86.029 115.854 L 86.858 114.800 199.903 114.800 L 312.948 114.800 313.874 115.670 M206.680 135.500 C 206.327 136.325,205.558 138.260,204.972 139.800 C 203.538 143.563,202.335 146.697,198.980 155.400 C 198.471 156.720,197.400 159.510,196.600 161.600 C 195.800 163.690,194.693 166.570,194.140 168.000 C 192.643 171.871,191.255 175.485,190.144 178.400 C 189.599 179.830,188.803 181.843,188.376 182.874 C 187.262 185.563,187.287 185.600,190.186 185.600 C 193.083 185.600,193.062 185.618,194.408 181.861 C 194.814 180.727,195.711 178.360,196.400 176.600 C 197.089 174.840,197.989 172.500,198.400 171.400 C 198.811 170.300,199.711 167.960,200.400 166.200 C 201.089 164.440,201.989 162.100,202.400 161.000 C 202.811 159.900,203.711 157.560,204.400 155.800 C 205.089 154.040,205.989 151.700,206.400 150.600 C 206.811 149.500,207.711 147.160,208.400 145.400 C 209.089 143.640,209.989 141.300,210.399 140.200 C 210.808 139.100,211.516 137.255,211.970 136.100 L 212.797 134.000 210.059 134.000 L 207.321 134.000 206.680 135.500 M180.334 146.339 C 178.720 147.185,172.810 150.233,167.200 153.113 C 161.590 155.993,155.515 159.120,153.700 160.061 L 150.400 161.773 150.400 163.830 L 150.400 165.886 154.100 167.796 C 156.135 168.846,160.320 171.010,163.400 172.605 C 175.415 178.826,183.212 182.800,183.402 182.800 C 183.511 182.800,183.600 181.567,183.600 180.060 L 183.600 177.320 170.536 170.760 C 163.350 167.152,157.486 164.020,157.504 163.800 C 157.522 163.580,163.401 160.452,170.568 156.849 L 183.600 150.298 183.600 147.549 C 183.600 146.037,183.525 144.800,183.434 144.800 C 183.343 144.800,181.948 145.492,180.334 146.339 M216.400 147.542 L 216.400 150.285 229.820 156.948 C 237.201 160.613,243.156 163.743,243.052 163.905 C 242.949 164.067,236.910 167.168,229.632 170.795 L 216.400 177.390 216.400 180.095 C 216.400 181.583,216.502 182.800,216.626 182.800 C 216.824 182.800,226.161 178.051,244.000 168.877 L 249.400 166.100 249.400 163.819 L 249.400 161.538 241.600 157.543 C 237.310 155.345,229.969 151.579,225.286 149.174 C 220.603 146.768,216.688 144.800,216.586 144.800 C 216.484 144.800,216.400 146.034,216.400 147.542 M155.200 203.800 L 155.200 206.400 169.600 206.400 L 184.000 206.400 184.000 203.800 L 184.000 201.200 169.600 201.200 L 155.200 201.200 155.200 203.800 M197.200 203.800 L 197.200 206.400 202.400 206.400 L 207.600 206.400 207.600 203.800 L 207.600 201.200 202.400 201.200 L 197.200 201.200 197.200 203.800 M220.800 203.800 L 220.800 206.400 225.800 206.400 L 230.800 206.400 230.800 203.800 L 230.800 201.200 225.800 201.200 L 220.800 201.200 220.800 203.800 M155.368 210.940 C 155.250 211.246,155.210 212.464,155.277 213.648 L 155.400 215.800 165.118 215.907 L 174.837 216.014 174.718 213.307 L 174.600 210.600 165.090 210.493 C 157.277 210.405,155.542 210.484,155.368 210.940 M183.474 210.660 C 183.323 210.810,183.200 212.077,183.200 213.474 L 183.200 216.014 192.900 215.907 L 202.600 215.800 202.600 213.200 L 202.600 210.600 193.174 210.493 C 187.989 210.434,183.624 210.509,183.474 210.660 M206.800 213.200 L 206.800 216.000 216.400 216.000 L 226.000 216.000 226.000 213.200 L 226.000 210.400 216.400 210.400 L 206.800 210.400 206.800 213.200 M234.800 213.200 L 234.800 216.000 244.400 216.000 L 254.000 216.000 254.000 213.200 L 254.000 210.400 244.400 210.400 L 234.800 210.400 234.800 213.200 M160.800 223.400 L 160.800 226.000 169.800 226.000 L 178.800 226.000 178.800 223.400 L 178.800 220.800 169.800 220.800 L 160.800 220.800 160.800 223.400 M155.200 231.800 L 155.200 234.400 165.000 234.400 L 174.800 234.400 174.800 231.800 L 174.800 229.200 165.000 229.200 L 155.200 229.200 155.200 231.800 M188.000 231.800 L 188.000 234.400 195.400 234.400 L 202.800 234.400 202.800 231.800 L 202.800 229.200 195.400 229.200 L 188.000 229.200 188.000 231.800 M155.366 238.944 C 155.250 239.247,155.210 240.464,155.277 241.648 L 155.400 243.800 179.000 243.800 L 202.600 243.800 202.600 241.200 L 202.600 238.600 179.089 238.497 C 159.421 238.410,155.543 238.484,155.366 238.944 M216.000 241.200 L 216.000 244.000 225.600 244.000 L 235.200 244.000 235.200 241.200 L 235.200 238.400 225.600 238.400 L 216.000 238.400 216.000 241.200 M150.800 250.403 L 150.800 253.205 179.100 253.103 L 207.400 253.000 207.526 251.232 C 207.596 250.260,207.547 249.045,207.419 248.532 L 207.185 247.600 178.992 247.600 L 150.800 247.600 150.800 250.403 M225.282 250.293 L 225.400 253.000 235.000 253.000 L 244.600 253.000 244.600 250.400 L 244.600 247.800 234.882 247.693 L 225.163 247.586 225.282 250.293 " stroke="none" fill="#090909" fill-rule="evenodd"></path><path id="path1" d="M143.900 115.100 C 174.755 115.157,225.245 115.157,256.100 115.100 C 286.955 115.043,261.710 114.997,200.000 114.997 C 138.290 114.997,113.045 115.043,143.900 115.100 M209.789 133.889 C 211.332 133.973,212.730 134.255,212.919 134.520 C 213.160 134.858,213.213 134.823,213.098 134.400 C 212.974 133.939,212.249 133.793,209.968 133.769 L 207.000 133.737 209.789 133.889 M227.600 156.179 C 227.600 156.289,228.140 156.659,228.800 157.000 C 229.460 157.341,230.000 157.531,230.000 157.421 C 230.000 157.311,229.460 156.941,228.800 156.600 C 228.140 156.259,227.600 156.069,227.600 156.179 M231.600 158.179 C 231.600 158.289,232.140 158.659,232.800 159.000 C 233.460 159.341,234.000 159.531,234.000 159.421 C 234.000 159.311,233.460 158.941,232.800 158.600 C 232.140 158.259,231.600 158.069,231.600 158.179 M235.600 160.179 C 235.600 160.289,236.140 160.659,236.800 161.000 C 237.460 161.341,238.000 161.531,238.000 161.421 C 238.000 161.311,237.460 160.941,236.800 160.600 C 236.140 160.259,235.600 160.069,235.600 160.179 M150.427 161.368 C 150.148 161.704,150.016 162.804,150.104 164.068 L 150.252 166.200 150.326 163.980 C 150.367 162.759,150.616 161.544,150.880 161.280 C 151.144 161.016,151.256 160.800,151.129 160.800 C 151.002 160.800,150.686 161.055,150.427 161.368 M249.724 163.800 C 249.726 165.120,249.801 165.612,249.890 164.893 C 249.979 164.174,249.977 163.094,249.886 162.493 C 249.795 161.892,249.722 162.480,249.724 163.800 M158.000 170.179 C 158.000 170.289,158.540 170.659,159.200 171.000 C 159.860 171.341,160.400 171.531,160.400 171.421 C 160.400 171.311,159.860 170.941,159.200 170.600 C 158.540 170.259,158.000 170.069,158.000 170.179 M154.860 203.476 C 154.827 205.058,154.935 206.436,155.100 206.539 C 155.265 206.641,155.349 205.797,155.286 204.662 C 155.082 200.984,154.921 200.537,154.860 203.476 M196.937 203.800 C 196.939 205.560,197.009 206.230,197.093 205.289 C 197.178 204.349,197.177 202.909,197.091 202.089 C 197.005 201.270,196.936 202.040,196.937 203.800 M230.732 203.801 C 230.659 205.451,230.735 206.801,230.900 206.801 C 231.065 206.800,231.200 205.450,231.200 203.800 C 231.200 199.925,230.902 199.925,230.732 203.801 M154.967 210.542 C 154.852 210.840,154.815 212.235,154.885 213.642 L 155.011 216.200 155.205 213.099 C 155.400 209.996,155.356 209.527,154.967 210.542 M174.714 212.100 C 174.920 215.882,175.079 216.255,175.140 213.100 C 175.173 211.395,175.065 210.000,174.900 210.000 C 174.735 210.000,174.651 210.945,174.714 212.100 M182.967 210.542 C 182.852 210.840,182.815 212.235,182.885 213.642 L 183.011 216.200 183.205 213.099 C 183.400 209.996,183.356 209.527,182.967 210.542 M202.714 212.100 C 202.920 215.882,203.079 216.255,203.140 213.100 C 203.173 211.395,203.065 210.000,202.900 210.000 C 202.735 210.000,202.651 210.945,202.714 212.100 M226.137 213.000 C 226.139 214.760,226.209 215.430,226.293 214.489 C 226.378 213.549,226.377 212.109,226.291 211.289 C 226.205 210.470,226.136 211.240,226.137 213.000 M254.134 213.200 C 254.134 214.850,254.205 215.525,254.291 214.700 C 254.378 213.875,254.378 212.525,254.291 211.700 C 254.205 210.875,254.134 211.550,254.134 213.200 M154.860 231.476 C 154.827 233.058,154.935 234.436,155.100 234.539 C 155.265 234.641,155.349 233.797,155.286 232.662 C 155.082 228.984,154.921 228.537,154.860 231.476 M174.732 231.801 C 174.659 233.451,174.735 234.801,174.900 234.801 C 175.065 234.800,175.200 233.450,175.200 231.800 C 175.200 227.925,174.902 227.925,174.732 231.801 M202.732 231.801 C 202.659 233.451,202.735 234.801,202.900 234.801 C 203.065 234.800,203.200 233.450,203.200 231.800 C 203.200 227.925,202.902 227.925,202.732 231.801 M154.967 238.542 C 154.852 238.840,154.815 240.235,154.885 241.642 L 155.011 244.200 155.205 241.099 C 155.400 237.996,155.356 237.527,154.967 238.542 M202.714 240.100 C 202.920 243.882,203.079 244.255,203.140 241.100 C 203.173 239.395,203.065 238.000,202.900 238.000 C 202.735 238.000,202.651 238.945,202.714 240.100 M164.929 247.500 C 172.811 247.561,185.591 247.561,193.329 247.500 C 201.068 247.439,194.620 247.389,179.000 247.390 C 163.380 247.390,157.048 247.439,164.929 247.500 M225.067 247.467 C 224.699 247.834,224.729 253.109,225.100 253.340 C 225.265 253.442,225.341 252.196,225.269 250.570 L 225.137 247.614 234.869 247.500 L 244.600 247.385 234.967 247.293 C 229.668 247.242,225.213 247.320,225.067 247.467 M244.796 250.482 C 244.688 252.177,244.744 253.419,244.920 253.242 C 245.095 253.065,245.184 251.679,245.116 250.160 L 244.992 247.400 244.796 250.482 M64.122 276.299 C 66.499 276.370,70.279 276.369,72.522 276.298 C 74.765 276.227,72.820 276.169,68.200 276.169 C 63.580 276.170,61.745 276.228,64.122 276.299 M101.400 276.295 C 143.504 276.569,175.106 276.571,174.938 276.300 C 174.836 276.135,154.648 276.043,130.076 276.095 C 105.504 276.148,92.600 276.238,101.400 276.295 M225.067 276.267 C 224.920 276.413,224.803 276.728,224.806 276.967 C 224.810 277.225,224.940 277.199,225.129 276.902 C 225.377 276.510,234.971 276.381,270.023 276.300 L 314.600 276.196 269.967 276.098 C 245.418 276.044,225.213 276.120,225.067 276.267 M327.722 276.299 C 330.099 276.370,333.879 276.369,336.122 276.298 C 338.365 276.227,336.420 276.169,331.800 276.169 C 327.180 276.170,325.345 276.228,327.722 276.299 M176.000 279.325 C 176.000 279.394,176.585 279.979,177.300 280.625 L 178.600 281.800 177.425 280.500 C 176.330 279.288,176.000 279.016,176.000 279.325 M222.575 280.500 L 221.400 281.800 222.700 280.625 C 223.415 279.979,224.000 279.394,224.000 279.325 C 224.000 279.016,223.670 279.288,222.575 280.500 " stroke="none" fill="#a4a4a4" fill-rule="evenodd"></path><path id="path2" d="M323.396 196.000 C 323.396 239.890,323.443 257.845,323.500 235.900 C 323.557 213.955,323.557 178.045,323.500 156.100 C 323.443 134.155,323.396 152.110,323.396 196.000 M76.596 196.600 C 76.596 240.380,76.643 258.349,76.700 236.532 C 76.757 214.714,76.757 178.894,76.700 156.932 C 76.643 134.969,76.596 152.820,76.596 196.600 M183.995 203.882 C 183.888 205.467,183.944 206.619,184.121 206.441 C 184.297 206.264,184.385 204.967,184.316 203.559 L 184.191 201.000 183.995 203.882 M160.323 210.299 C 163.031 210.368,167.351 210.368,169.923 210.299 C 172.495 210.229,170.280 210.172,165.000 210.173 C 159.720 210.173,157.615 210.230,160.323 210.299 M188.323 210.299 C 191.031 210.368,195.351 210.368,197.923 210.299 C 200.495 210.229,198.280 210.172,193.000 210.173 C 187.720 210.173,185.615 210.230,188.323 210.299 M211.500 210.299 C 214.195 210.368,218.605 210.368,221.300 210.299 C 223.995 210.230,221.790 210.173,216.400 210.173 C 211.010 210.173,208.805 210.230,211.500 210.299 M239.500 210.299 C 242.195 210.368,246.605 210.368,249.300 210.299 C 251.995 210.230,249.790 210.173,244.400 210.173 C 239.010 210.173,236.805 210.230,239.500 210.299 M165.323 226.299 C 167.920 226.369,172.060 226.368,174.523 226.298 C 176.985 226.228,174.860 226.171,169.800 226.172 C 164.740 226.172,162.725 226.229,165.323 226.299 M187.773 232.000 L 187.800 234.600 195.200 234.614 L 202.600 234.629 195.318 234.505 L 188.036 234.382 187.891 231.891 L 187.745 229.400 187.773 232.000 M160.323 234.699 C 163.031 234.768,167.351 234.768,169.923 234.699 C 172.495 234.629,170.280 234.572,165.000 234.573 C 159.720 234.573,157.615 234.630,160.323 234.699 M167.329 238.300 C 173.889 238.362,184.509 238.361,190.929 238.300 C 197.348 238.238,191.980 238.187,179.000 238.188 C 166.020 238.188,160.768 238.238,167.329 238.300 M215.767 238.542 C 215.652 238.840,215.623 240.235,215.702 241.642 L 215.846 244.200 215.923 241.307 L 216.000 238.414 225.700 238.300 L 235.400 238.185 225.687 238.093 C 217.820 238.018,215.935 238.103,215.767 238.542 M164.929 253.500 C 172.811 253.561,185.591 253.561,193.329 253.500 C 201.068 253.439,194.620 253.389,179.000 253.390 C 163.380 253.390,157.048 253.439,164.929 253.500 M230.323 253.499 C 233.031 253.568,237.351 253.568,239.923 253.499 C 242.495 253.429,240.280 253.372,235.000 253.373 C 229.720 253.373,227.615 253.430,230.323 253.499 " stroke="none" fill="#7c7c7c" fill-rule="evenodd"></path></g></svg>
